build/img/header-logo-2-desktop.svg

<svg width="118" height="23" viewBox="0 0 118 23" fill="none" xmlns="http://www.w3.org/2000/svg">
<path d="M1.66421 20.3672C0.634036 18.8274 0.141461 16.9854 0.264212 15.1318V7.56624C0.13426 5.69905 0.61939 3.84085 1.64421 2.28043C2.57088 1.07667 4.15421 0.478149 6.39421 0.484874C8.63421 0.491598 10.1509 1.01951 10.9442 2.0686C11.9115 3.36866 12.3836 4.97608 12.2742 6.59785V8.37324H8.13421V6.44654C8.12863 5.93959 8.08517 5.43379 8.00421 4.93343C7.95415 4.5712 7.78928 4.23503 7.53421 3.97512C7.37675 3.83891 7.19394 3.73574 6.99648 3.67165C6.79902 3.60757 6.59086 3.58385 6.38421 3.60189C6.08741 3.55721 5.78418 3.60587 5.51578 3.74124C5.24738 3.87661 5.02685 4.09212 4.88421 4.35844C4.62127 5.06686 4.50555 5.82224 4.54421 6.57768V16.1809C4.49859 16.9413 4.63224 17.7019 4.93421 18.4001C5.07849 18.652 5.29259 18.8559 5.55019 18.9868C5.80779 19.1176 6.09767 19.1696 6.38421 19.1365C6.66576 19.1767 6.95271 19.1261 7.20411 18.9921C7.4555 18.8581 7.65852 18.6474 7.78421 18.3901C8.0261 17.6803 8.13132 16.9305 8.0942 16.1809V14.1634H12.2342V15.9085C12.3561 17.5542 11.9226 19.1931 11.0042 20.5588C10.1242 21.6685 8.60421 22.2132 6.44421 22.2132C4.28421 22.2132 2.59421 21.6079 1.66421 20.3672Z" fill="#111111"/>
<path d="M17.9149 0.777405H22.6549L26.6549 21.961H22.7149L22.0049 17.2804H18.6849L17.8849 21.9307H13.8849L17.9149 0.777405ZM21.5649 14.6174L20.3049 6.10357L19.0549 14.6174H21.5649Z" fill="#111111"/>
<path d="M29.7255 3.96503H26.4855V0.777405H37.2055V3.96503H34.0055V21.9307H29.7155L29.7255 3.96503Z" fill="#111111"/>
<path d="M45.6165 0.777405H53.7465V2.97646H48.5464V9.96705H52.7664V12.0551H48.5464V19.8124H53.7964V21.9307H45.6165V0.777405Z" fill="#444444"/>
<path d="M56.157 0.777405H58.157L64.157 14.8292V0.777405H66.597V21.961H64.727L58.727 7.5158V21.9307H56.247L56.157 0.777405Z" fill="#444444"/>
<path d="M69.8276 0.777405H77.9476V2.97646H72.7476V9.96705H77.0076V12.0551H72.7876V19.8124H78.0076V21.9307H69.8276V0.777405Z" fill="#444444"/>
<path d="M80.3582 0.777408H84.5782C86.2412 0.642415 87.8973 1.11105 89.2482 2.09886C90.2482 2.97647 90.7381 4.40888 90.7381 6.3961C90.7381 9.08608 89.8748 10.7303 88.1481 11.3289L91.1481 21.9307H88.3082L85.5582 12.0047H83.2881V21.9307H80.3582V0.777408ZM84.3582 9.85609C85.3215 9.95011 86.2849 9.67658 87.0582 9.08944C87.3724 8.71428 87.6073 8.27823 87.7483 7.80811C87.8893 7.33799 87.9335 6.84374 87.8781 6.35575C87.8982 5.67138 87.8001 4.9887 87.5882 4.33827C87.5022 4.09844 87.3694 3.87845 87.1976 3.69132C87.0258 3.50419 86.8186 3.35372 86.5882 3.24883C85.939 2.98016 85.2389 2.85959 84.5381 2.89577H83.2482V9.89644L84.3582 9.85609Z" fill="#444444"/>
<path d="M94.6788 20.3672C93.7229 18.7397 93.28 16.8576 93.4088 14.9704V7.90921C93.3743 6.54656 93.5429 5.18641 93.9088 3.87424C94.1976 2.88775 94.8114 2.03016 95.6488 1.44318C96.6598 0.828594 97.8301 0.533471 99.0088 0.595832C99.7713 0.522686 100.54 0.618393 101.262 0.876262C101.984 1.13413 102.642 1.54794 103.189 2.08877C104.148 3.44456 104.602 5.09886 104.469 6.75925V7.54607H101.719V6.89038C101.738 6.10615 101.677 5.32203 101.539 4.5501C101.448 4.05539 101.177 3.61286 100.779 3.30935C100.26 3.00031 99.6603 2.85619 99.0588 2.89576C98.4056 2.8394 97.7563 3.04203 97.2488 3.46066C96.8341 3.85761 96.563 4.38318 96.4788 4.9536C96.3521 5.78453 96.2953 6.62477 96.3088 7.46537V15.3235C96.2294 16.5176 96.4316 17.7136 96.8988 18.8137C97.1702 19.152 97.5146 19.4233 97.9058 19.6067C98.2969 19.7902 98.7245 19.881 99.1558 19.8723C99.5871 19.8635 100.011 19.7554 100.394 19.5562C100.778 19.357 101.111 19.072 101.369 18.7229C101.851 17.5595 102.059 16.2993 101.979 15.041V13.5481H99.3188V11.46H104.619V21.9307H102.809L102.519 19.4997C102.29 20.3073 101.796 21.013 101.119 21.502C100.442 21.991 99.6206 22.2346 98.7888 22.193C98.0067 22.2626 97.2199 22.1317 96.5014 21.8125C95.7829 21.4933 95.1559 20.9961 94.6788 20.3672Z" fill="#444444"/>
<path d="M110.699 14.466L106.169 0.777405H108.889L112.099 10.9859L115.259 0.777405H118.009L113.509 14.466V21.9307H110.709L110.699 14.466Z" fill="#444444"/>
</svg>

<svg width="118" height="23" fill="none" xmlns="http://www.w3.org/2000/svg"><path d="M1.664 20.367a8.417 8.417 0 01-1.4-5.235V7.566a8.55 8.55 0 011.38-5.286C2.571 1.077 4.154.478 6.394.485c2.24.007 3.757.535 4.55 1.584a6.82 6.82 0 011.33 4.529v1.775h-4.14V6.447a10.174 10.174 0 00-.13-1.514 1.7 1.7 0 00-.47-.958 1.556 1.556 0 00-1.15-.373 1.457 1.457 0 00-1.5.756 5.562 5.562 0 00-.34 2.22v9.603c-.045.76.088 1.52.39 2.22a1.478 1.478 0 001.45.736 1.35 1.35 0 001.4-.747c.242-.71.347-1.46.31-2.21v-2.017h4.14v1.745a7.361 7.361 0 01-1.23 4.65c-.88 1.11-2.4 1.655-4.56 1.655-2.16 0-3.85-.605-4.78-1.846zM17.915.777h4.74l4 21.184h-3.94l-.71-4.68h-3.32l-.8 4.65h-4L17.915.777zm3.65 13.84l-1.26-8.513-1.25 8.513h2.51zm8.161-10.652h-3.24V.777h10.72v3.188h-3.2v17.966h-4.29l.01-17.966z" fill="#111"/><path d="M45.617.777h8.13v2.2h-5.2v6.99h4.22v2.088h-4.22v7.757h5.25v2.119h-8.18V.777zm10.54 0h2l6 14.052V.777h2.44v21.184h-1.87l-6-14.445V21.93h-2.48L56.157.777zm13.671 0h8.12v2.2h-5.2v6.99h4.26v2.088h-4.22v7.757h5.22v2.119h-8.18V.777zm10.53 0h4.22a6.956 6.956 0 014.67 1.322c1 .877 1.49 2.31 1.49 4.297 0 2.69-.863 4.334-2.59 4.933l3 10.602h-2.84l-2.75-9.926h-2.27v9.926h-2.93V.777zm4 9.08a3.846 3.846 0 002.7-.768 3.611 3.611 0 00.82-2.733 5.95 5.95 0 00-.29-2.018 1.91 1.91 0 00-1-1.09 4.724 4.724 0 00-2.05-.352h-1.29v7l1.11-.04zm10.321 10.51a9.396 9.396 0 01-1.27-5.397V7.91a13.73 13.73 0 01.5-4.036 4.517 4.517 0 011.74-2.43 5.87 5.87 0 013.36-.848 5.216 5.216 0 012.253.28c.722.258 1.38.672 1.927 1.213a7.108 7.108 0 011.28 4.67v.787h-2.75V6.89a11.69 11.69 0 00-.18-2.34 2.019 2.019 0 00-.76-1.24 2.98 2.98 0 00-1.72-.414 2.505 2.505 0 00-1.81.565 2.59 2.59 0 00-.77 1.493 15.06 15.06 0 00-.17 2.511v7.858a7.634 7.634 0 00.59 3.49 2.809 2.809 0 004.47-.09 8.253 8.253 0 00.61-3.682v-1.493h-2.66V11.46h5.3v10.47h-1.81l-.29-2.43a3.723 3.723 0 01-1.4 2.002 3.666 3.666 0 01-2.33.691 4.623 4.623 0 01-2.288-.38 4.667 4.667 0 01-1.822-1.446zm16.02-5.901L106.169.777h2.72l3.21 10.209 3.16-10.209h2.75l-4.5 13.689v7.465h-2.8l-.01-7.465z" fill="#444"/></svg>
